svg/nature/rabbit_fill.svg

<?xml version="1.0" encoding="UTF-8"?>
<svg width="24px" height="24px" viewBox="0 0 24 24" version="1.1" xmlns="http://www.w3.org/2000/svg" xmlns:xlink="http://www.w3.org/1999/xlink">
    <title>rabbit_fill</title>
    <g id="Icon" stroke="none" stroke-width="1" fill="none" fill-rule="evenodd">
        <g id="Nature" transform="translate(-576.000000, -146.000000)">
            <g id="rabbit_fill" transform="translate(576.000000, 146.000000)">
                <path d="M24,0 L24,24 L0,24 L0,0 L24,0 Z M12.5935,23.2578 L12.5819,23.2595 L12.5109,23.295 L12.4919,23.2987 L12.4767,23.295 L12.4057,23.2595 C12.3958,23.2564 12.387,23.259 12.3821,23.2649 L12.378,23.2758 L12.3609,23.7031 L12.3659,23.7235 L12.3769,23.7357 L12.4805,23.8097 L12.4953,23.8136 L12.5071,23.8097 L12.6107,23.7357 L12.6233,23.7197 L12.6267,23.7031 L12.6096,23.2758 C12.6076,23.2657 12.601,23.2593 12.5935,23.2578 Z M12.8584,23.1453 L12.8445,23.1473 L12.6598,23.2397 L12.6499,23.2499 L12.6472,23.2611 L12.6651,23.6906 L12.6699,23.7034 L12.6784,23.7105 L12.8793,23.8032 C12.8914,23.8069 12.9022,23.803 12.9078,23.7952 L12.9118,23.7812 L12.8777,23.1665 C12.8753,23.1546 12.8674,23.147 12.8584,23.1453 Z M12.143,23.1473 C12.1332,23.1424 12.1222,23.1453 12.1156,23.1526 L12.1099,23.1665 L12.0758,23.7812 C12.0751,23.7927 12.0828,23.8019 12.0926,23.8046 L12.1083,23.8032 L12.3092,23.7105 L12.3186,23.7024 L12.3225,23.6906 L12.3404,23.2611 L12.3372,23.2485 L12.3278,23.2397 L12.143,23.1473 Z" id="MingCute" fill-rule="nonzero"></path>
                <path d="M12,11.0537 C12,7.5 11,5 10.0736,3.73417 C9.34597,2.82695 8.30906,2.13497 7.13452,2.44969 C5.95997,2.76441 5.40797,3.88214 5.23147,5.0316 C5.04905,6.21964 5.19349,7.76273 5.67758,9.56937 C5.97392,10.6753 6.37221,11.7853 6.82071,12.7892 C5.7284,13.7314 5,15.0182 5,16.5 C5,18.128 5.88215,19.5256 7.15736,20.482 C8.43226,21.4382 10.1477,22 12,22 C13.8523,22 15.5677,21.4382 16.8426,20.482 C18.1179,19.5256 19,18.128 19,16.5 C19,15.0182 18.2716,13.7314 17.1793,12.7892 C17.6278,11.7853 18.0261,10.6753 18.3224,9.56937 C18.8065,7.76273 18.9509,6.21964 18.7685,5.0316 C18.592,3.88214 18.04,2.76441 16.8655,2.44969 C15.6909,2.13497 14.654,2.82695 13.9264,3.73417 C13,5 12,7.5 12,11.0537 Z M10.583,16.9932 C10.5292,16.8387 10.5,16.6728 10.5,16.5 C10.5,15.6716 11.1716,15 12,15 C12.8284,15 13.5,15.6716 13.5,16.5 C13.5,16.6728 13.4708,16.8387 13.417,16.9932 C13.444,16.9977 13.4717,17 13.5,17 C14.0523,17 14.5,17.4477 14.5,18 C14.5,18.5523 14.0523,19 13.5,19 C12.9372,19 12.4178,18.814 12,18.5002 C11.5822,18.814 11.0628,19 10.5,19 C9.94772,19 9.5,18.5523 9.5,18 C9.5,17.4477 9.94772,17 10.5,17 C10.5283,17 10.556,16.9977 10.583,16.9932 Z" id="形状" fill="#09244B"></path>
            </g>
        </g>
    </g>
</svg>

<svg xmlns="http://www.w3.org/2000/svg" width="24" height="24"><g fill="none" fill-rule="evenodd"><path d="M24 0v24H0V0h24ZM12.594 23.258l-.012.002-.071.035-.02.004-.014-.004-.071-.036c-.01-.003-.019 0-.024.006l-.004.01-.017.428.005.02.01.013.104.074.015.004.012-.004.104-.074.012-.016.004-.017-.017-.427c-.002-.01-.009-.017-.016-.018Zm.264-.113-.014.002-.184.093-.01.01-.003.011.018.43.005.012.008.008.201.092c.012.004.023 0 .029-.008l.004-.014-.034-.614c-.003-.012-.01-.02-.02-.022Zm-.715.002a.023.023 0 0 0-.027.006l-.006.014-.034.614c0 .012.007.02.017.024l.015-.002.201-.093.01-.008.003-.011.018-.43-.003-.012-.01-.01-.184-.092Z"/><path fill="#09244B" d="M12 11.054C12 7.5 11 5 10.074 3.734c-.728-.907-1.765-1.599-2.94-1.284-1.174.314-1.726 1.432-1.903 2.582-.182 1.188-.038 2.73.447 4.537a21.95 21.95 0 0 0 1.143 3.22C5.728 13.731 5 15.02 5 16.5c0 1.628.882 3.026 2.157 3.982C8.432 21.438 10.147 22 12 22c1.852 0 3.568-.562 4.843-1.518S19 18.128 19 16.5c0-1.482-.728-2.769-1.82-3.71a21.946 21.946 0 0 0 1.142-3.22c.485-1.807.629-3.35.447-4.538-.177-1.15-.729-2.268-1.903-2.582-1.175-.315-2.212.377-2.94 1.284C13 5 12 7.5 12 11.054Zm-1.417 5.94a1.5 1.5 0 1 1 2.834 0A.504.504 0 0 0 13.5 17a1 1 0 1 1 0 2 2.49 2.49 0 0 1-1.5-.5 2.49 2.49 0 0 1-1.5.5 1 1 0 1 1 0-2 .504.504 0 0 0 .083-.007Z"/></g></svg>
